X:1
T:Title
%%score { ( 1 5 ) | ( 2 3 4 ) }
L:1/8
M:4/4
K:E
V:1 treble nm="Grand Piano"
V:5 treble 
V:2 bass 
V:3 bass 
V:4 bass 
V:1
 z4 z2[Q:1/4=100] B2 | B3 B c2 B2 | [FB]4 [B,EG]2 [^B,FG]2 | [CEG]3 [CEG] [G,DG]2 [G,DF]2 | %4
 [G,CE]6 [B,=DE]2 | [CE]3 [CE] [CE]2 [^B,F]2 | z2 E2 G2 [GB]2 | [GB]3 ^A G2 A2 | [DB]6 B2 | %9
 B3 G A2 B2 | c4 c2 c2 | c3 c d2 e2 | d6 d2 | e3 e B2 G2 | c4 z4 | [G,E]3 [G,E] [CF]2 [CF]2 | %16
 [^B,DG]6 G2 | A3 A G2 G2 | %18
[M:5/4] c2 [Ad]2 [Ge]6[Q:1/4=99][Q:1/4=97][Q:1/4=96][Q:1/4=94][Q:1/4=93][Q:1/4=91][Q:1/4=90][Q:1/4=88][Q:1/4=87][Q:1/4=85][Q:1/4=84][Q:1/4=82] | %19
[M:4/4] [^A,E]3 [A,E] [B,EG]3 [=A,DF][Q:1/4=81][Q:1/4=79][Q:1/4=78][Q:1/4=76] | %20
[M:3/4][K:bass] [E,G,B,E]6 |] %21
V:2
 z4 z2 [E,G,E]2 | [E,G,E]3 [E,G,E] [E,A,E]2 [E,G,E]2 | z2 B,2 z4 | C,3 C, ^B,,2 B,,2 | C,6 G,,2 | %5
 [A,,A,]3 [A,,A,] [A,,A,]2 [A,,A,]2 | [G,B,]2 B,2 [E,B,E]2 [E,B,]2 | %7
 [D,D]3 [D,CD] [D,B,D]2 [D,=G,D]2 | [G,,G,]6 [F,A,D]2 | [E,G,E]3 [E,=DE] [E,CE]2 [E,G,E]2 | %10
 [A,E]4 [A,E]2 [G,B,^E]2 | [F,A,F]3 [F,A,F] [F,B,F]2 [F,CF]2 | [B,F]6 [A,B,F]2 | %13
 [G,B,E]3 [G,B,E] [E,G,E]2 [E,B,E]2 | [E,A,E]4 [E,G,E]4 | C,3 C, A,,2 A,,2 | G,,6 [G,B,E]2 | %17
 [F,B,D]3 [F,B,D] [E,B,E]2 [E,B,E]2 |[M:5/4] [A,E]2 [F,B,]2 [E,B,]6 |[M:4/4] C,3 ^B,, =B,,3 B,, | %20
[M:3/4] E,,6 |] %21
V:3
 x8 | x8 | F,2 z A E,2 D,2 | x8 | x8 | x8 | E,4 z4 | x8 | x8 | x8 | x8 | x8 | x8 | x8 | x8 | x8 | %16
 x8 | x8 |[M:5/4] x10 |[M:4/4] x8 |[M:3/4] x6 |] %21
V:4
 x8 | x8 | D,4 z4 | x8 | x8 | x8 | x8 | x8 | x8 | x8 | x8 | x8 | x8 | x8 | x8 | x8 | x8 | x8 | %18
[M:5/4] x10 |[M:4/4] x8 |[M:3/4] x6 |] %21
V:5
 x8 | x8 | x8 | x8 | x8 | x8 | G4 z4 | x8 | x8 | x8 | x8 | x8 | x8 | x8 | z2 =G2 [^GB]4 | x8 | x8 | %17
 x8 |[M:5/4] x10 |[M:4/4] x8 |[M:3/4][K:bass] x6 |] %21

